apps/www/public/images/career/icons/time_off-light.svg

<svg width="49" height="49" viewBox="0 0 49 49" fill="none" xmlns="http://www.w3.org/2000/svg">
<path d="M13.3936 31.2238L36.8493 31.2236" stroke="#299764" stroke-width="2" stroke-miterlimit="10" stroke-linejoin="bevel"/>
<path d="M9.1748 22.1114C9.1748 18.866 10.1508 15.8487 11.8253 13.3367L12.9433 11.9117L14.3699 10.3814C16.2536 8.67096 18.5509 7.40804 21.0941 6.7605M40.8543 22.1114C40.8543 14.7164 35.7868 8.5051 28.935 6.7605" stroke="#92CEAC" stroke-width="2" stroke-miterlimit="10" stroke-linejoin="bevel"/>
<line x1="25.0513" y1="7.16797" x2="25.0513" y2="10.2258" stroke="#299764" stroke-width="2" stroke-miterlimit="10" stroke-linejoin="bevel"/>
<path d="M22.2568 37.9265H27.5536V41.929H22.2568L22.2568 37.9265Z" fill="#5BB98C" stroke="#299764" stroke-width="2" stroke-miterlimit="10" stroke-linejoin="bevel"/>
<path d="M7.98145 7.65308L42.7388 42.4105" stroke="#299764" stroke-width="2" stroke-miterlimit="10" stroke-linejoin="bevel"/>
<path d="M10.916 37.85H37.9082H38.7846V31.2125H36.3479V21.7072C36.3479 15.4226 31.2532 10.3279 24.9686 10.3279C22.0246 10.3279 19.3417 11.4458 17.3214 13.2804L16.2965 14.3797L15.4933 15.4035C14.2904 17.2081 13.5892 19.3758 13.5892 21.7072L13.4634 31.2125H10.916V37.85Z" stroke="#299764" stroke-width="2" stroke-miterlimit="10" stroke-linejoin="bevel"/>
</svg>

<svg xmlns="http://www.w3.org/2000/svg" width="49" height="49" fill="none" viewBox="0 0 49 49"><path stroke="#299764" stroke-linejoin="bevel" stroke-miterlimit="10" stroke-width="2" d="M13.394 31.224h23.455"/><path stroke="#92ceac" stroke-linejoin="bevel" stroke-miterlimit="10" stroke-width="2" d="M9.175 22.111c0-3.245.976-6.262 2.65-8.774l1.118-1.425 1.427-1.53a15.8 15.8 0 0 1 6.724-3.621m19.76 15.35c0-7.395-5.067-13.606-11.919-15.35"/><path stroke="#299764" stroke-linejoin="bevel" stroke-miterlimit="10" stroke-width="2" d="M25.051 7.168v3.058"/><path fill="#5bb98c" stroke="#299764" stroke-linejoin="bevel" stroke-miterlimit="10" stroke-width="2" d="M22.257 37.927h5.297v4.002h-5.297z"/><path stroke="#299764" stroke-linejoin="bevel" stroke-miterlimit="10" stroke-width="2" d="M7.981 7.653 42.74 42.41M10.916 37.85h27.869v-6.638h-2.437v-9.505c0-6.284-5.095-11.38-11.38-11.38a11.34 11.34 0 0 0-7.647 2.953l-1.024 1.1-.804 1.023a11.33 11.33 0 0 0-1.904 6.304l-.126 9.505h-2.547z"/></svg>
